icons/svg/vine.svg

﻿<?xml version="1.0" encoding="utf-8"?>
<!DOCTYPE svg PUBLIC "-//W3C//DTD SVG 1.1//EN" "http://www.w3.org/Graphics/SVG/1.1/DTD/svg11.dtd">
<svg xmlns="http://www.w3.org/2000/svg" xmlns:xlink="http://www.w3.org/1999/xlink" version="1.1" baseProfile="full" width="24" height="24" viewBox="0 0 24.00 24.00" enable-background="new 0 0 24.00 24.00" xml:space="preserve">
	<path fill="#000000" fill-opacity="1" stroke-linejoin="round" d="M 19.8901,11.9485C 19.4264,12.0554 18.9779,12.1025 18.5742,12.1025C 16.3031,12.1025 14.5546,10.5164 14.5546,7.75846C 14.5546,6.40669 15.0772,5.7037 15.8163,5.7037C 16.5194,5.7037 16.9881,6.33455 16.9881,7.61435C 16.9881,8.34201 16.7932,9.13946 16.6493,9.61126C 16.6493,9.61126 17.3492,10.8321 19.2629,10.4574C 19.6693,9.55531 19.8901,8.38697 19.8901,7.36208C 19.8901,4.60417 18.4841,3 15.9064,3C 13.257,3 11.7067,5.03686 11.7067,7.72262C 11.7067,10.3833 12.9505,12.6671 15.0014,13.7077C 14.139,15.4329 13.0416,16.9525 11.8972,18.0975C 9.82074,15.5873 7.94357,12.2387 7.1733,5.7037L 4.10987,5.7037C 5.52521,16.5874 9.7431,20.0529 10.8583,20.7183C 11.4892,21.0969 12.0323,21.0789 12.6092,20.7543C 13.5147,20.2394 16.2337,17.5209 17.7407,14.3367C 18.3733,14.3349 19.1333,14.2623 19.8901,14.0913L 19.8901,11.9485 Z "/>
</svg>

<svg xmlns="http://www.w3.org/2000/svg" version="1.1" baseProfile="full" width="24" height="24" viewBox="0 0 24.00 24.00" xml:space="preserve"><path fill="#000" fill-opacity="1" stroke-linejoin="round" d="M19.89 11.948c-.464.107-.912.154-1.316.154-2.27 0-4.02-1.586-4.02-4.344 0-1.35.523-2.054 1.262-2.054.703 0 1.172.63 1.172 1.91 0 .728-.195 1.525-.34 1.997 0 0 .7 1.222 2.615.847.406-.902.627-2.07.627-3.095C19.89 4.604 18.484 3 15.906 3c-2.65 0-4.2 2.037-4.2 4.723 0 2.66 1.245 4.944 3.295 5.985-.86 1.725-1.958 3.245-3.103 4.39-2.076-2.51-3.953-5.86-4.724-12.394H4.11c1.415 10.883 5.633 14.35 6.748 15.014.63.38 1.174.36 1.75.036.907-.515 3.626-3.233 5.133-6.417.633-.002 1.393-.075 2.15-.246V11.95z"/></svg>
